assets/img/people-icon.svg

<svg width="61" height="42" viewBox="0 0 61 42" fill="none" xmlns="http://www.w3.org/2000/svg">
<g clip-path="url(#clip0_4_15)">
<path d="M60.36 33.5698C60.22 33.7898 60.01 33.9498 59.76 34.0098C59.69 34.0298 59.6 34.0498 59.52 34.0498C59.08 34.0498 58.69 33.7398 58.57 33.3198L56.28 24.9498C55.59 22.4898 53.15 20.4798 50.82 20.4798H44.43C42.82 20.4798 41.1 21.4698 40.04 23.0098C41.88 24.4298 43.34 26.4298 43.95 28.6498L47.04 39.8398C47.2 40.4498 46.85 41.0698 46.26 41.2298C46.16 41.2598 46.06 41.2698 45.94 41.2698C45.43 41.2698 44.99 40.9298 44.85 40.4498L41.78 29.2498C40.85 25.8798 37.49 23.1298 34.3 23.1298H25.74C24.81 23.1298 23.84 23.3698 22.91 23.8298L22.48 24.0598C22.45 24.0798 22.41 24.0998 22.37 24.1198C22.16 24.2398 21.96 24.3698 21.76 24.5198C20.11 25.6898 18.91 27.4298 18.45 29.2598L15.68 40.4098C15.51 41.0098 14.9 41.3798 14.31 41.2298C14.01 41.1598 13.76 40.9798 13.6 40.7098C13.44 40.4498 13.4 40.1398 13.47 39.8498L16.25 28.7098C16.8 26.4798 18.22 24.3898 20.15 22.8998C19.03 21.4198 17.31 20.4598 15.73 20.4598H9.33003C7.02003 20.4598 4.62003 22.4798 4.00003 24.9498L1.93003 33.2998C1.87003 33.5498 1.71003 33.7798 1.49003 33.8998C1.33003 33.9998 1.16003 34.0498 0.98003 34.0498C0.91003 34.0498 0.82003 34.0398 0.75003 34.0198C0.49003 33.9598 0.27003 33.7998 0.14003 33.5698C3.00258e-05 33.3498 -0.02997 33.0798 0.03003 32.8298L2.10003 24.4998C2.91003 21.1998 6.16003 18.5298 9.33003 18.5298H15.72C17.95 18.5298 20.28 19.8298 21.8 21.8598C23.08 21.1998 24.43 20.8698 25.73 20.8698H34.29C35.67 20.8698 37.09 21.2598 38.39 21.9498C39.84 19.8698 42.16 18.5398 44.42 18.5398H50.81C53.96 18.5398 57.26 21.1898 58.15 24.4598L60.45 32.8298C60.53 33.0598 60.49 33.3398 60.36 33.5698Z" fill="white"/>
<path d="M30.25 0C25.28 0 21.25 4.04 21.25 9C21.25 13.96 25.29 17.99 30.25 17.99C35.21 17.99 39.24 13.95 39.24 9C39.24 4.04 35.21 0 30.25 0ZM30.25 15.82C26.49 15.82 23.43 12.76 23.43 9C23.43 5.24 26.48 2.18 30.25 2.18C34 2.18 37.05 5.23 37.05 9C37.06 12.75 34 15.82 30.25 15.82Z" fill="white"/>
<path d="M47.7899 2.3999C44.0099 2.3999 40.9299 5.4699 40.9299 9.2599C40.9299 13.0399 43.9999 16.1199 47.7899 16.1199C51.5699 16.1199 54.6499 13.0499 54.6499 9.2599C54.6499 5.4699 51.5699 2.3999 47.7899 2.3999ZM47.7899 14.2099C45.0599 14.2099 42.8299 11.9899 42.8299 9.2499C42.8299 6.5099 45.0599 4.2899 47.7899 4.2899C50.5299 4.2899 52.7499 6.5099 52.7499 9.2499C52.7499 11.9899 50.5299 14.2099 47.7899 14.2099Z" fill="white"/>
<path d="M12.7001 2.3999C8.92009 2.3999 5.84009 5.4699 5.84009 9.2599C5.84009 13.0399 8.91009 16.1199 12.7001 16.1199C16.4801 16.1199 19.5601 13.0499 19.5601 9.2599C19.5601 5.4699 16.4801 2.3999 12.7001 2.3999ZM12.7001 14.2099C9.97009 14.2099 7.74009 11.9899 7.74009 9.2499C7.74009 6.5099 9.97009 4.2899 12.7001 4.2899C15.4401 4.2899 17.6601 6.5099 17.6601 9.2499C17.6601 11.9899 15.4401 14.2099 12.7001 14.2099Z" fill="white"/>
</g>
<defs>
<clipPath id="clip0_4_15">
<rect width="60.5" height="41.28" fill="white"/>
</clipPath>
</defs>
</svg>

<!-- Generator: Adobe Illustrator 24.0.0, SVG Export Plug-In  -->
<svg version="1.1" xmlns="http://www.w3.org/2000/svg" xmlns:xlink="http://www.w3.org/1999/xlink" x="0px" y="0px" width="60.5px"
	 height="41.28px" viewBox="0 0 60.5 41.28" style="enable-background:new 0 0 60.5 41.28;" xml:space="preserve">
<style type="text/css">
	.st0{fill:#3556FB;}
</style>
<defs>
</defs>
<g id="people-icon_2_">
	<g>
		<g>
			<g>
				<path class="st0" d="M60.36,33.57c-0.14,0.22-0.35,0.38-0.6,0.44c-0.07,0.02-0.16,0.04-0.24,0.04c-0.44,0-0.83-0.31-0.95-0.73
					l-2.29-8.37c-0.69-2.46-3.13-4.47-5.46-4.47h-6.39c-1.61,0-3.33,0.99-4.39,2.53c1.84,1.42,3.3,3.42,3.91,5.64l3.09,11.19
					c0.16,0.61-0.19,1.23-0.78,1.39c-0.1,0.03-0.2,0.04-0.32,0.04c-0.51,0-0.95-0.34-1.09-0.82l-3.07-11.2
					c-0.93-3.37-4.29-6.12-7.48-6.12h-8.56c-0.93,0-1.9,0.24-2.83,0.7l-0.43,0.23c-0.03,0.02-0.07,0.04-0.11,0.06
					c-0.21,0.12-0.41,0.25-0.61,0.4c-1.65,1.17-2.85,2.91-3.31,4.74l-2.77,11.15c-0.17,0.6-0.78,0.97-1.37,0.82
					c-0.3-0.07-0.55-0.25-0.71-0.52c-0.16-0.26-0.2-0.57-0.13-0.86l2.78-11.14c0.55-2.23,1.97-4.32,3.9-5.81
					c-1.12-1.48-2.84-2.44-4.42-2.44H9.33c-2.31,0-4.71,2.02-5.33,4.49L1.93,33.3c-0.06,0.25-0.22,0.48-0.44,0.6
					c-0.16,0.1-0.33,0.15-0.51,0.15c-0.07,0-0.16-0.01-0.23-0.03c-0.26-0.06-0.48-0.22-0.61-0.45C0,33.35-0.03,33.08,0.03,32.83
					L2.1,24.5c0.81-3.3,4.06-5.97,7.23-5.97h6.39c2.23,0,4.56,1.3,6.08,3.33c1.28-0.66,2.63-0.99,3.93-0.99h8.56
					c1.38,0,2.8,0.39,4.1,1.08c1.45-2.08,3.77-3.41,6.03-3.41h6.39c3.15,0,6.45,2.65,7.34,5.92l2.3,8.37
					C60.53,33.06,60.49,33.34,60.36,33.57z"/>
			</g>
		</g>
	</g>
	<g>
		<g>
			<path class="st0" d="M30.25,0c-4.97,0-9,4.04-9,9c0,4.96,4.04,8.99,9,8.99c4.96,0,8.99-4.04,8.99-8.99
				C39.24,4.04,35.21,0,30.25,0z M30.25,15.82c-3.76,0-6.82-3.06-6.82-6.82c0-3.76,3.05-6.82,6.82-6.82c3.75,0,6.8,3.05,6.8,6.82
				C37.06,12.75,34,15.82,30.25,15.82z"/>
		</g>
	</g>
	<g>
		<g>
			<path class="st0" d="M47.79,2.4c-3.78,0-6.86,3.07-6.86,6.86c0,3.78,3.07,6.86,6.86,6.86c3.78,0,6.86-3.07,6.86-6.86
				C54.65,5.47,51.57,2.4,47.79,2.4z M47.79,14.21c-2.73,0-4.96-2.22-4.96-4.96c0-2.74,2.23-4.96,4.96-4.96
				c2.74,0,4.96,2.22,4.96,4.96C52.75,11.99,50.53,14.21,47.79,14.21z"/>
		</g>
	</g>
	<g>
		<g>
			<path class="st0" d="M12.7,2.4c-3.78,0-6.86,3.07-6.86,6.86c0,3.78,3.07,6.86,6.86,6.86c3.78,0,6.86-3.07,6.86-6.86
				C19.56,5.47,16.48,2.4,12.7,2.4z M12.7,14.21c-2.73,0-4.96-2.22-4.96-4.96c0-2.74,2.23-4.96,4.96-4.96
				c2.74,0,4.96,2.22,4.96,4.96C17.66,11.99,15.44,14.21,12.7,14.21z"/>
		</g>
	</g>
</g>
</svg>
